usr/share/icons/biglinux-icons-material/16/actions/distribute-horizontal-equal.svg

<svg xmlns="http://www.w3.org/2000/svg" viewBox="0 0 16 16"><path d="M3 2v4l3-2-3-2zm10 0-3 2 3 2V2zM6 5v2H2v6h4v1h1V5H6zm3 0v9h1v-1h4V7h-4V5H9zM3 8h3v4H3V8zm7 0h3v4h-3V8z" style="fill:currentColor;fill-opacity:1;stroke:none;color:#dedede"/></svg>

<svg xmlns="http://www.w3.org/2000/svg" viewBox="0 0 16 16">
  <defs id="defs3051">
    <style type="text/css" id="current-color-scheme">
      .ColorScheme-Text {
        color:#dedede;
      }
      </style>
  </defs>
 <path style="fill:currentColor;fill-opacity:1;stroke:none" 
     d="M 3 2 L 3 6 L 6 4 L 3 2 z M 13 2 L 10 4 L 13 6 L 13 2 z M 6 5 L 6 6 L 6 7 L 5 7 L 4 7 L 2 7 L 2 13 L 4 13 L 5 13 L 6 13 L 6 14 L 7 14 L 7 13 L 7 7 L 7 6 L 7 5 L 6 5 z M 9 5 L 9 6 L 9 7 L 9 13 L 9 14 L 10 14 L 10 13 L 11 13 L 12 13 L 14 13 L 14 7 L 12 7 L 11 7 L 10 7 L 10 6 L 10 5 L 9 5 z M 3 8 L 6 8 L 6 12 L 3 12 L 3 8 z M 10 8 L 13 8 L 13 12 L 10 12 L 10 8 z "
     class="ColorScheme-Text"
     />
</svg>
